Lila_HD/places/scalable/network-workgroup-symbolic.svg

<?xml version="1.0" encoding="UTF-8"?>
<!-- Created with Inkscape (http://www.inkscape.org/) -->
<svg version="1.1" viewBox="0 0 16 16" xmlns="http://www.w3.org/2000/svg" xmlns:cc="http://creativecommons.org/ns#" xmlns:dc="http://purl.org/dc/elements/1.1/" xmlns:rdf="http://www.w3.org/1999/02/22-rdf-syntax-ns#">
<metadata>
<rdf:RDF>
<cc:Work rdf:about="">
<dc:format>image/svg+xml</dc:format>
<dc:type rdf:resource="http://purl.org/dc/dcmitype/StillImage"/>
<dc:title/>
</cc:Work>
</rdf:RDF>
</metadata>
<path d="m0 0v7h3 1 3v-3-1-3h-7zm2 2h3v2h-3v-2zm7 4v1h3 1 3v-1h-7zm-9 3v7h7v-3-1-3h-3-1-3zm9 0v3 1 3h7v-7h-3-1-3zm-7 2h3v2h-3v-2zm9 0h3v2h-3v-2z" color="#000000" fill="#999" fill-opacity=".91237"/>
<path d="m9 3h7v-3h-7v3z" color="#000000" fill="#999" fill-opacity=".91237"/>
<path d="m9 4v1h7v-1h-7z" color="#000000" fill="#999" fill-opacity=".91237"/>
</svg>

<?xml version="1.0" encoding="UTF-8" standalone="no"?>
<!-- Created with Inkscape (http://www.inkscape.org/) -->

<svg
   xmlns:dc="http://purl.org/dc/elements/1.1/"
   xmlns:cc="http://creativecommons.org/ns#"
   xmlns:rdf="http://www.w3.org/1999/02/22-rdf-syntax-ns#"
   xmlns:svg="http://www.w3.org/2000/svg"
   xmlns="http://www.w3.org/2000/svg"
   xmlns:sodipodi="http://sodipodi.sourceforge.net/DTD/sodipodi-0.dtd"
   xmlns:inkscape="http://www.inkscape.org/namespaces/inkscape"
   version="1.1"
   width="16"
   height="16"
   id="svg13094"
   inkscape:version="0.48.3.1 r9886"
   sodipodi:docname="network-workgroup.svg"
   inkscape:export-filename="folder.png"
   inkscape:export-xdpi="90"
   inkscape:export-ydpi="90">
  <sodipodi:namedview
     pagecolor="#ffffff"
     bordercolor="#666666"
     borderopacity="1"
     objecttolerance="10"
     gridtolerance="10"
     guidetolerance="10"
     inkscape:pageopacity="0"
     inkscape:pageshadow="2"
     inkscape:window-width="1920"
     inkscape:window-height="1033"
     id="namedview6"
     showgrid="true"
     inkscape:snap-bbox="true"
     inkscape:bbox-paths="true"
     inkscape:bbox-nodes="true"
     inkscape:snap-bbox-edge-midpoints="true"
     inkscape:snap-bbox-midpoints="true"
     inkscape:object-paths="true"
     inkscape:snap-intersection-paths="true"
     inkscape:object-nodes="true"
     inkscape:snap-smooth-nodes="true"
     inkscape:snap-midpoints="true"
     inkscape:snap-object-midpoints="true"
     inkscape:snap-center="true"
     inkscape:zoom="29.5"
     inkscape:cx="5.3359439"
     inkscape:cy="9.0390482"
     inkscape:window-x="-10"
     inkscape:window-y="25"
     inkscape:window-maximized="1"
     inkscape:current-layer="svg13094">
    <inkscape:grid
       type="xygrid"
       id="grid2983" />
  </sodipodi:namedview>
  <defs
     id="defs7" />
  <metadata
     id="metadata13099">
    <rdf:RDF>
      <cc:Work
         rdf:about="">
        <dc:format>image/svg+xml</dc:format>
        <dc:type
           rdf:resource="http://purl.org/dc/dcmitype/StillImage" />
        <dc:title />
      </cc:Work>
    </rdf:RDF>
  </metadata>
  <path
     style="color:#000000;fill:#999999;fill-opacity:0.912371168;fill-rule:nonzero;stroke:none;stroke-width:1;marker:none;visibility:visible;display:inline;overflow:visible;enable-background:accumulate"
     d="M 0 0 L 0 7 L 3 7 L 4 7 L 7 7 L 7 4 L 7 3 L 7 0 L 0 0 z M 2 2 L 5 2 L 5 4 L 2 4 L 2 2 z M 9 6 L 9 7 L 12 7 L 13 7 L 16 7 L 16 6 L 9 6 z M 0 9 L 0 16 L 7 16 L 7 13 L 7 12 L 7 9 L 4 9 L 3 9 L 0 9 z M 9 9 L 9 12 L 9 13 L 9 16 L 16 16 L 16 9 L 13 9 L 12 9 L 9 9 z M 2 11 L 5 11 L 5 13 L 2 13 L 2 11 z M 11 11 L 14 11 L 14 13 L 11 13 L 11 11 z "
     id="path2994" />
  <path
     style="color:#000000;fill:#999999;fill-opacity:0.912371168;fill-rule:nonzero;stroke:none;stroke-width:1;marker:none;visibility:visible;display:inline;overflow:visible;enable-background:accumulate"
     d="M 9,3 16,3 16,0 9,0 9,3 z"
     id="path2992" />
  <path
     style="color:#000000;fill:#999999;fill-opacity:0.912371168;fill-rule:nonzero;stroke:none;stroke-width:1;marker:none;visibility:visible;display:inline;overflow:visible;enable-background:accumulate"
     d="M 9,4 9,5 16,5 16,4 9,4 z"
     id="path2990" />
</svg>
